content/images/project/banyan-db.svg

<svg width="36" height="36" viewBox="0 0 36 36" fill="none" xmlns="http://www.w3.org/2000/svg">
<g clip-path="url(#clip0_271_1230)">
<path d="M21.8766 7.05302C22.1977 7.6458 22.4718 8.27568 22.692 8.92251C24.9008 15.4098 21.3397 22.4814 14.7414 24.7106C12.4832 25.4736 10.0571 25.572 7.77329 25.0371C10.7614 29.2135 16.2326 31.0698 21.3899 29.3274C27.6683 27.2063 31.0636 20.464 28.9619 14.2911C27.8127 10.9159 25.1702 8.27992 21.8766 7.05302Z" fill="#3987CD"/>
<path d="M11.7632 16H13.2632V26H11.7632V16Z" fill="#3987CD"/>
<rect x="8.64258" y="18.3364" width="1.5" height="5.20919" rx="0.75" transform="rotate(-45 8.64258 18.3364)" fill="#3987CD"/>
<rect x="15.0464" y="20.0586" width="1.5" height="4.78215" rx="0.75" transform="rotate(45 15.0464 20.0586)" fill="#3987CD"/>
<path fill-rule="evenodd" clip-rule="evenodd" d="M12.5132 13.6667C12.0529 13.6667 11.6799 14.0398 11.6799 14.5C11.6799 14.9602 12.0529 15.3333 12.5132 15.3333C12.9734 15.3333 13.3465 14.9602 13.3465 14.5C13.3465 14.0398 12.9734 13.6667 12.5132 13.6667ZM15.0132 14.5C15.0132 15.8807 13.8939 17 12.5132 17C11.1325 17 10.0132 15.8807 10.0132 14.5C10.0132 13.1193 11.1325 12 12.5132 12C13.8939 12 15.0132 13.1193 15.0132 14.5Z" fill="#3987CD"/>
<path fill-rule="evenodd" clip-rule="evenodd" d="M16 19.3333C15.6318 19.3333 15.3333 19.6318 15.3333 20C15.3333 20.3682 15.6318 20.6667 16 20.6667C16.3682 20.6667 16.6667 20.3682 16.6667 20C16.6667 19.6318 16.3682 19.3333 16 19.3333ZM18 20C18 21.1046 17.1046 22 16 22C14.8954 22 14 21.1046 14 20C14 18.8954 14.8954 18 16 18C17.1046 18 18 18.8954 18 20Z" fill="#3987CD"/>
<circle cx="17.9999" cy="17.9999" r="16.4999" stroke="#3987CD" stroke-width="3"/>
</g>
<defs>
<clipPath id="clip0_271_1230">
<path d="M0 18C0 8.05887 8.05887 0 18 0V0C27.9411 0 36 8.05887 36 18V18C36 27.9411 27.9411 36 18 36V36C8.05887 36 0 27.9411 0 18V18Z" fill="white"/>
</clipPath>
</defs>
</svg>

<svg xmlns="http://www.w3.org/2000/svg" width="36" height="36" fill="none" viewBox="0 0 36 36"><g clip-path="url(#a)"><path fill="#3987CD" d="M21.877 7.053c.32.593.595 1.223.815 1.87 2.209 6.487-1.352 13.558-7.95 15.788a12.743 12.743 0 0 1-6.969.326c2.988 4.177 8.46 6.033 13.617 4.29 6.278-2.12 9.674-8.863 7.572-15.036-1.15-3.375-3.792-6.011-7.085-7.238Z"/><path fill="#3987CD" d="M11.763 16h1.5v10h-1.5V16Z"/><rect width="1.5" height="5.209" x="8.643" y="18.336" fill="#3987CD" rx=".75" transform="rotate(-45 8.643 18.336)"/><rect width="1.5" height="4.782" x="15.046" y="20.059" fill="#3987CD" rx=".75" transform="rotate(45 15.046 20.059)"/><path fill="#3987CD" fill-rule="evenodd" d="M12.513 13.667a.833.833 0 1 0 0 1.666.833.833 0 0 0 0-1.666Zm2.5.833a2.5 2.5 0 1 1-5 0 2.5 2.5 0 0 1 5 0ZM16 19.333a.667.667 0 1 0 0 1.334.667.667 0 0 0 0-1.334ZM18 20a2 2 0 1 1-4 0 2 2 0 0 1 4 0Z" clip-rule="evenodd"/><circle cx="18" cy="18" r="16.5" stroke="#3987CD" stroke-width="3"/></g><defs><clipPath id="a"><path fill="#fff" d="M0 18C0 8.059 8.059 0 18 0s18 8.059 18 18-8.059 18-18 18S0 27.941 0 18Z"/></clipPath></defs></svg>
